X: 199
T: Quare Bungle Rye
M:3/4
R:waltz
L:1/8
Z:Alf Warnock - alf0@rogers.com
K:A % transposed from C
E2|"A"A2 A2 A2|F2 E2 E2|A2 A2 c2|e4 e2|
"D"f2 d2 d2|"A"e2 c2 A2|c2 A2 F2|"E7"E4 EE|
"A"A2 A2 A2|FE3 E2|A2 A2 c2|e4 ee|
"D"f2 d2 f2|"A"e2 c2 A2|"D"d2 c2 B2|"A"c2 A2 F2|
"E7"E6-|E6|e3f ec|"Bm"d2 B2 G2|
"E7"E2 F2 G2|"A"A6-|A4 z2|]

